X:153
T:RVW2/2/153 The Young Servant Man
C:Mr. and Mrs. Verrall, Horsham, Sussex, 8 October 1904
L:1/8
Q:1/4=70
M:3/4
I:linebreak $
K:G
"^(Editorial suggestion " D | GA B2 dB | cA GF (D>E) | =FD C2 D-D |$ GG G2 :| G2 | Bc d2 ed | 
w: It's|of a dam- sel both|fair and hand- some These _|lines are true as _|I've been told|Her|hair was black as a|
w: Near~the|banks of Shan- non in~a|lof- ty moun- tain her _|fa- ther gar- nered great|stores of gold.|||
dB cd z d | BA GG A>G |$ GG D3 D | GA/A/ B2 dB | cA G>F (D>E) |"^(a)" =FD C2 DD | G G G3 |:$ D | 
w: ra- ven's fea- ther her|form and beau- ty to des-|cribe who can But|still it's a fol- ly be-|longs to na- ture She _|fell in love with a|ser- vant man.||
w: ||||||||
GA B2 dB | cA GF (D>E) | =FD C2 D-D |$ GG G2 :| G2 | Bc d2 ed | dB cd z d | BA GG A>G |$ GG D3 D | 
w: |||||||||
w: |||||||||
GA/A/ B2 dB | cA G>F (D>E) |"^(a) var. 1" FD C2 B,C | D G G3 |:$ D | GA B2 dB | cA GF (D>E) | 
w: |||||||
w: |||||||
=FD C2 D-D |$ GG G2 :| G2 | Bc d2 ed | dB cd z d | BA GG A>G |$ GG D3 D | GA/A/ B2 dB | 
w: ||||||||
w: ||||||||
cA G>F (D>E) |"^(a) var. 2" =FD C2 DD | G A G3 |] 
w: |||
w: |||



